!!!!SEGMENT: pl-cz--i-125--001_zeidler-jozef--requiem-requiem.krn
!!!cenid: 18xx:286
!!!COM: Zeidler, Józef
!!!COM-rismid: pe30003401
!!!CDT: ~1744-1806
!!!CNT: Polish
!!!OPR: Requiem
!!!OTL: Requiem
!!!OMV: 001
!!!OMD: Requiem
!!!PDT:
!!!AGN: Sacred; Requiem section
!!!SMS-siglum: PL-CZ
!!!SMS-shelfmark: I-125
!!!SMS-shelfwork: 001-001 M
!!!NIFC-rismid:
!!!URL-scan: http://repozytorium.nifc.pl/skany/pl-cz-nut--i-125
!!!ONB-nifc:
!!!AIN: 1 alto 1 clars 2 empty 1 organ 1 tenor 2 violn 1 vox
!!!key:
**kern	**fba	**dynam	**kern	**dynam	**kern	**dynam	**kern	**text	**dynam	**kern	**text	**dynam	**kern	**text	**dynam	**kern	**text	**dynam	**kern	**dynam	**kern	**dynam
*part9	*part9	*part9	*part8	*part8	*part7	*part7	*part6	*part6	*part6	*part5	*part5	*part5	*part4	*part4	*part4	*part3	*part3	*	*part2	*	*part1	*
*	*	*	*group3	*	*group3	*	*group2	*	*	*group2	*	*	*group2	*	*	*group2	*	*	*group1	*	*group1	*
*staff9	*staff9	*	*staff8	*	*staff7	*	*staff6	*staff6	*	*staff5	*staff5	*	*staff4	*staff4	*	*staff3	*staff3	*	*staff2	*	*staff1	*
*Iorgan	*	*	*Ivioln	*	*Ivioln	*	*Iempty	*	*	*Itenor	*	*	*Ialto	*	*	*Ivox	*	*	*Iempty	*	*Iclars	*
*I"Organo	*	*	*I"Violino Secundo.	*	*I"Violino Primo.	*	*I"Baſso.	*	*	*I"Tenore	*	*	*I"Alto.	*	*	*I"Canto.	*	*	*I"Claritti Secundo.	*	*I"Clarinetto Primo	*
*I'Org.	*	*	*I'V-no 2	*	*I'V-no 1	*	*I'B.	*	*	*I'T.	*	*	*I'A.	*	*	*I'S.	*	*	*I'Cl.sec	*	*I'Cl.1-mo	*
*clefF4	*	*	*clefG2	*	*clefG2	*	*clefF4	*	*	*clefC4	*	*	*clefC3	*	*	*clefC1	*	*	*clefG2	*	*clefG2	*
*	*	*	*	*	*	*	*	*	*	*	*	*	*	*	*	*	*	*	*ITrd1c2	*	*ITrd1c2	*
*k[b-e-a-]	*	*	*k[b-e-a-]	*	*k[b-e-a-]	*	*k[b-e-a-]	*	*	*k[b-e-a-]	*	*	*k[b-e-a-]	*	*	*k[b-e-a-]	*	*	*k[b-e-a-]	*	*k[b-e-a-]	*
*E-:	*	*	*E-:	*	*E-:	*	*E-:	*	*	*E-:	*	*	*E-:	*	*	*E-:	*	*	*E-:	*	*E-:	*
*M2/2	*	*	*M2/2	*	*M2/2	*	*M2/2	*	*	*M2/2	*	*	*M2/2	*	*	*M2/2	*	*	*M2/2	*	*M2/2	*
*met(c|)	*	*	*met(c|)	*	*met(c|)	*	*met(c|)	*	*	*met(c|)	*	*	*met(c|)	*	*	*met(c|)	*	*	*met(c|)	*	*met(c|)	*
=1	=1	=1	=1	=1	=1	=1	=1	=1	=1	=1	=1	=1	=1	=1	=1	=1	=1	=1	=1	=1	=1	=1
*2\right	*	*	*	*	*	*	*	*	*	*	*	*	*	*	*	*	*	*	*2\right	*	*2\right	*
!	!	!	!	!	!LO:TX:b:t=P:problem=mixed beam	!	!LO:TX:b:t=P:problem=litera "R" przed kluczem	!	!	!LO:TX:b:t=P:problem=litera "R" przed kluczem	!	!	!LO:TX:b:t=P:problem=litera "R" przed kluczem	!	!	!	!LO:TX:b:t=P:problem=litera "R" przed kluczem	!	!	!	!	!
!LO:TX:b:t=P:problem=w źródle przy kluczu bemol as oktawę wyżej	!	!	!	!	!	!	!LO:TX:b:t=P:problem=w źródle przy kluczu inna kolejność bemoli (as,b,es), bemol as oktawę wyżej	!	!	!LO:TX:b:t=P:problem=w źródle przy kluczu inna kolejność bemoli (b,as,es)	!	!	!LO:TX:b:t=P:problem=w źródle przy kluczu bemol as oktawę wyżej	!	!	!LO:TX:b:t=P:problem=w źródle przy kluczu bemol es oktawę wyżej	!	!	!	!	!	!
!LO:TX:a:Bi:t=Lento	!	!	!LO:TX:a:Bi:t=Lento	!	!LO:TX:a:Bi:t=Lento	!	!LO:TX:a:Bi:t=Lento	!	!	!LO:TX:a:Bi:t=Lento	!	!LO:DY:b:rj	!LO:TX:a:Bi:t=Lento	!	!LO:DY:b	!LO:TX:a:Bi:t=Lento	!	!LO:DY:b	!LO:TX:a:Bi:t=Lento	!	!LO:TX:a:Bi:t=Lento	!
2E-\	.	.	8G/L	.	(>8e-/L	.	2E-\	[R]e-	.	2.B-\	[R]e-	p	2.g\	[R]e-	p	2.ee-\	[R]e-	p	2ee-\	.	2gg\	.
*	*	*	*	*	*8\right	*	*	*	*	*	*	*	*	*	*	*	*	*	*	*	*	*
.	.	.	(8g/'	.	8ee-\)	.	.	.	.	.	.	.	.	.	.	.	.	.	.	.	.	.
.	.	.	8g/'	.	8ee-\`>	.	.	.	.	.	.	.	.	.	.	.	.	.	.	.	.	.
.	.	.	8g/'J)	.	8ee-\`>J	.	.	.	.	.	.	.	.	.	.	.	.	.	.	.	.	.
!	!	!	!	!	!	!	!	!	!	!	!	!	!	!	!	!	!	!	!	!	!LO:TX:a:i:t=dolce	!
2EE-/	x x 8	.	8g/L	.	(8ee-\L	.	2E-\	-qui-	.	.	.	.	.	.	.	.	.	.	2dd-X\	.	2bb-\	.
.	x x 7	.	8b-\	.	8dd-X\	.	.	.	.	.	.	.	.	.	.	.	.	.	.	.	.	.
.	x x 6	.	8e-/	.	8cc\	.	.	.	.	4B-\	-qui-	.	4g\	-qui-	.	4dd-X\	-qui-	.	.	.	.	.
.	.	.	8g/J	.	8dd-\J)	.	.	.	.	.	.	.	.	.	.	.	.	.	.	.	.	.
=2	=2	=2	=2	=2	=2	=2	=2	=2	=2	=2	=2	=2	=2	=2	=2	=2	=2	=2	=2	=2	=2	=2
.	.	.	.	.	4qqdd/	.	.	.	.	.	.	.	.	.	.	8qqdd/	.	.	.	.	.	.
*	*	*	*	*	*2\right	*	*	*	*	*	*	*	*	*	*	*	*	*	*	*	*	*
2AA-/	.	.	2a-/	.	2cc\	.	2A-\	-em	.	2A-\	-em	.	2e-\	-em	.	2cc\	-em	.	8r	.	8r	.
*	*	*	*	*	*	*	*	*	*	*	*	*	*	*	*	*	*	*	*8\right	*	*8\right	*
.	.	.	.	.	.	.	.	.	.	.	.	.	.	.	.	.	.	.	(8cc\L	.	(8aa-\L	.
.	.	.	.	.	.	.	.	.	.	.	.	.	.	.	.	.	.	.	8b-\	.	8gg\	.
.	.	.	.	.	.	.	.	.	.	.	.	.	.	.	.	.	.	.	8cc\J)	.	8aa-\J)	.
2r	.	.	2ra	.	2ra	.	2r	.	.	2rE	.	.	2rB	.	.	2rf	.	.	(8dd-X\L	.	(8bb-\L	.
.	.	.	.	.	.	.	.	.	.	.	.	.	.	.	.	.	.	.	8cc\	.	8aa-\	.
.	.	.	.	.	.	.	.	.	.	.	.	.	.	.	.	.	.	.	8b-\	.	8gg\	.
.	.	.	.	.	.	.	.	.	.	.	.	.	.	.	.	.	.	.	8cc\J)	.	8aa-\J)	.
=3	=3	=3	=3	=3	=3	=3	=3	=3	=3	=3	=3	=3	=3	=3	=3	=3	=3	=3	=3	=3	=3	=3
*	*	*	*	*	*	*	*	*ij	*	*	*ij	*	*	*ij	*	*	*ij	*	*	*	*	*
2BB-/	.	.	8d/L	.	(8b-\L	.	2B-\	re-	.	2.f\	re-	.	2.d\	re-	.	2.b-\	re-	.	2.ddn\	.	2ff\	.
.	.	.	8f/	.	8B-/)	.	.	.	.	.	.	.	.	.	.	.	.	.	.	.	.	.
.	.	.	8d/	.	8b-\`	.	.	.	.	.	.	.	.	.	.	.	.	.	.	.	.	.
.	.	.	8f/J	.	8b-\`J	.	.	.	.	.	.	.	.	.	.	.	.	.	.	.	.	.
*	*	*	*	*	*	*	*	*	*	*	*	*	*	*	*	*	*	*	*	*	*4\right	*
2BB-/	x x 8	.	8d/L	.	(8b-\L	.	2BB-/	-qui-	.	.	.	.	.	.	.	.	.	.	.	.	4.bb-\	.
.	.	.	8f/	.	8cc\	.	.	.	.	.	.	.	.	.	.	.	.	.	.	.	.	.
*	*	*	*	*	*	*	*	*	*	*	*	*	*	*	*	*	*	*	*4\right	*	*	*
.	x x 7	.	8d/	.	8b-\	.	.	.	.	4d\	-qui-	.	4f\	-qui-	.	4a-\	-qui-	.	4ff\	.	.	.
.	.	.	8f/J	.	8a-\J)	.	.	.	.	.	.	.	.	.	.	.	.	.	.	.	8aa-\	.
=4	=4	=4	=4	=4	=4	=4	=4	=4	=4	=4	=4	=4	=4	=4	=4	=4	=4	=4	=4	=4	=4	=4
.	.	.	.	.	4qqa-/	.	.	.	.	.	.	.	.	.	.	8qqa-/	.	.	.	.	.	.
!	!	!	!	!	!	!	!	!	!	!	!	!	!	!	!	!LO:TX:a:i:t=pierwszą -	!	!	!	!	!	!
!	!	!	!	!	!	!	!	!	!	!	!	!	!	!	!	!LO:TX:a:i:t=drugą -	!	!	!	!	!	!
2E-\	.	.	2e-/ 2G/	.	2g/	.	2E-\	-em	.	2e-\	-em	.	2e-\	-em	.	2g\	-em	.	8ee-\`L	.	8gg\`L	.
.	.	.	.	.	.	.	.	.	.	.	.	.	.	.	.	.	.	.	(8ee-\	.	(8gg\	.
.	.	.	.	.	.	.	.	.	.	.	.	.	.	.	.	.	.	.	8dd\)	.	8ff\)	.
.	.	.	.	.	.	.	.	.	.	.	.	.	.	.	.	.	.	.	8ee-\J	.	8gg\J	.
2rC	.	.	2r	.	2ra	.	2rC	.	.	2r	.	.	2rB	.	.	2rd	.	.	(8ff\L	.	(8aa-\L	.
.	.	.	.	.	.	.	.	.	.	.	.	.	.	.	.	.	.	.	8ee-\	.	8gg\	.
.	.	.	.	.	.	.	.	.	.	.	.	.	.	.	.	.	.	.	8dd\	.	8ff\	.
.	.	.	.	.	.	.	.	.	.	.	.	.	.	.	.	.	.	.	8ee-\J)	.	8gg\J)	.
=5	=5	=5	=5	=5	=5	=5	=5	=5	=5	=5	=5	=5	=5	=5	=5	=5	=5	=5	=5	=5	=5	=5
!	!	!	!	!	!LO:TX:a:t=P:problem=mixed beam	!	!	!	!	!	!	!	!	!	!	!LO:TX:a:t=P:problem=znak repetycji na początku taktu	!	!	!	!	!	!
*4\right	*	*	*	*	*	*	*	*	*	*	*	*	*	*	*	*	*	*	*	*	*	*
4E-\	.	.	8e-/L	.	(>8e-/L	.	4E-\	re-	.	[4B-\	re-	.	4g\	re-	.	4ff 4ee-\	re-	.	[2ee-\	.	[2gg\	.
.	.	.	8g/	.	8ee-\J)	.	.	.	.	.	.	.	.	.	.	.	.	.	.	.	.	.
*	*	*	*	*	*4\right	*	*	*	*	*	*	*	*	*	*	*	*	*	*	*	*	*
4E-\	.	.	8b-\	.	[4ee-\	.	4E-\	-qui-	.	4B-\]	-qui-	.	4g\	-qui-	.	4ff 4ee-\	-qui-	.	.	.	.	.
.	.	.	8g/J	.	.	.	.	.	.	.	.	.	.	.	.	.	.	.	.	.	.	.
4G\	x x 6	.	8b-\L	.	8ee-\L]	.	4G\	-em	.	[4B-\	-em	.	4g\	-em	.	4ff 4ee-\	-em	.	4ee-\]	.	4gg\]	.
*	*	*	*	*	*	*	*	*Xij	*	*	*Xij	*	*	*Xij	*	*	*Xij	*	*	*	*	*
.	.	.	8g/	.	8b-\`	.	.	.	.	.	.	.	.	.	.	.	.	.	.	.	.	.
4E-\	.	.	8b-\	.	8gg\	.	4E-\	ae-	.	4B-\]	ae-	.	(8b-\L	ae-	.	(8ccc 8gg\L	ae-	.	4r	.	4r	.
.	.	.	8g/J	.	8ee-\J	.	.	.	.	.	.	.	8g\J)	.	.	8ff 8ee-\J)	.	.	.	.	.	.
=6	=6	=6	=6	=6	=6	=6	=6	=6	=6	=6	=6	=6	=6	=6	=6	=6	=6	=6	=6	=6	=6	=6
4B-\	x x 4	.	(8g/L	.	(8ee-\L	.	4B-\	-ter-	.	4B-\	-ter-	.	(8g\L	-ter-	.	(8ff 8ee-\L	-ter-	.	8r	.	8r	.
.	x x 3	.	8f/J)	.	8dd\J)	.	.	.	.	.	.	.	8f\J	.	.	8ee- 8dd\J)	.	.	(8b-\L	.	8dd\L	.
4BB-/	.	.	4f/	.	4dd\	.	4BB-/	-nam	.	4B-\	-nam	.	4f\)	-nam	.	4ee- 4dd\	-nam	.	8dd\	.	8ff\	.
.	.	.	.	.	.	.	.	.	.	.	.	.	.	.	.	.	.	.	8cc\J)	.	8ee-\J	.
!	!	!	!	!	!	!	!	!	!	!	!	!	!	!	!	!	!	!	!	!	!LO:LB:g=original	!
2r	.	.	2r	.	2ra	.	2r	.	.	2rG	.	.	2r	.	.	2r	.	.	(8b-\L	.	(8dd\L	.
.	.	.	.	.	.	.	.	.	.	.	.	.	.	.	.	.	.	.	8cc\	.	8ee-\	.
.	.	.	.	.	.	.	.	.	.	.	.	.	.	.	.	.	.	.	8dd\	.	8ff\	.
!	!	!	!	!	!	!	!	!	!	!	!	!	!	!	!	!LO:TX:a:t=P:problem=znak repetycji na końcu taktu	!	!	!	!	!	!
.	.	.	.	.	.	.	.	.	.	.	.	.	.	.	.	.	.	.	8ee-\J)	.	8gg\J)	.
=7	=7	=7	=7	=7	=7	=7	=7	=7	=7	=7	=7	=7	=7	=7	=7	=7	=7	=7	=7	=7	=7	=7
!	!	!	!	!	!	!	!	!	!	!LO:LB:g=original	!	!	!	!	!	!	!	!	!LO:LB:g=original	!	!	!
!	!	!	!	!	!	!	!	!	!	!	!	!	!	!	!	!LO:TX:a:t=P:problem=takty 7-8 zapisane repetycją	!	!	!	!	!	!
*	*	*	*	*	*	*	*	*	*	*	*ij	*	*	*ij	*	*	*	*	*	*	*	*
4B-\	x x 7	.	8d/L	.	4ff\	.	4B-\	Re-	.	4d\	re-	.	4a-\	re-	.	4ffyy 4ee-\yy	re-	.	2ff\	.	2aa-\	.
.	.	.	8f/	.	.	.	.	.	.	.	.	.	.	.	.	.	.	.	.	.	.	.
4BB-/	x x _	.	8a-/	.	(4.ff\	.	4BB-/	-qui-	.	4d\	-qui-	.	4a-\	-qui-	.	4ffyy 4ee-\yy	-qui-	.	.	.	.	.
.	.	.	8f/J	.	.	.	.	.	.	.	.	.	.	.	.	.	.	.	.	.	.	.
4D/	x x _	.	8a-/L	.	.	.	4D/	-em	.	4d\	-em	.	4a-\	-em	.	4ffyy 4ee-\yy	-em	.	2r	.	2r	.
.	x x X	.	8b-\	.	8gg\L)	.	.	.	.	.	.	.	.	.	.	.	.	.	.	.	.	.
4BB-/	.	.	8cc\	.	8aa-\	.	4BB-/	ae-	.	4d\	ae-	.	8cc\L	ae-	.	(8cccyy 8gg\Lyy	ae-	.	.	.	.	.
.	.	.	8a-/J	.	8ff\J	.	.	.	.	.	.	.	8a-\J	.	.	8ffyy 8ee-\J)yy	.	.	.	.	.	.
=8	=8	=8	=8	=8	=8	=8	=8	=8	=8	=8	=8	=8	=8	=8	=8	=8	=8	=8	=8	=8	=8	=8
!	!	!	!	!	!	!	!	!	!	!	!	!	!LO:LB:g=original	!	!	!	!	!	!	!	!	!
4E-\	x x 4	.	8a-/L	.	(8ff\L	.	4e-\	-ter-	.	4B-\	ter-	.	8a-\L	ter-	.	(8ffyy 8ee-\Lyy	ter-	.	4r	.	4r	.
.	x x 3	.	8g/J	.	8ee-\J)	.	.	.	.	.	.	.	8g\J	.	.	8ee-yy 8dd\J)yy	.	.	.	.	.	.
4EE-/	.	.	4g/	.	4ee-\	.	4E-\	-nam	.	4B-\	-nam	.	4g\	-nam	.	4ee-yy 4dd\yy	-nam	.	(8ee-\L	.	(8ee-\L	.
*	*	*	*	*	*	*	*	*	*	*	*Xij	*	*	*Xij	*	*	*	*	*	*	*	*
.	.	.	.	.	.	.	.	.	.	.	.	.	.	.	.	.	.	.	8dd\J)	.	8ff\J)	.
2r	.	.	2ra	.	2ra	.	2r	.	.	2rG	.	.	2r	.	.	2ryy	.	.	(8ee-\L	.	(8gg\L	.
.	.	.	.	.	.	.	.	.	.	.	.	.	.	.	.	.	.	.	8ff\	.	8aa-\	.
.	.	.	.	.	.	.	.	.	.	.	.	.	.	.	.	.	.	.	8gg\	.	8bb-\	.
.	.	.	.	.	.	.	.	.	.	.	.	.	.	.	.	.	.	.	8ff\J)	.	8aa-\J)	.
=9	=9	=9	=9	=9	=9	=9	=9	=9	=9	=9	=9	=9	=9	=9	=9	=9	=9	=9	=9	=9	=9	=9
!	!	!	!	!	!	!	!LO:LB:g=original	!	!	!	!	!	!	!	!	!LO:LB:g=original	!	!	!	!	!	!
*	*	*	*8\right	*	*	*	*	*	*	*	*	*	*	*	*	*	*	*	*	*	*	*
2E-\	.	.	8ee-\`L	.	8gg\`L	.	2E-\	do-	.	2e-\	do-	.	2b-\	do-	.	2gg\	do-	.	2ee-\	.	2gg\	.
.	.	.	8ee-\	.	(8gg\	.	.	.	.	.	.	.	.	.	.	.	.	.	.	.	.	.
.	.	.	8gg\	.	8bb-\	.	.	.	.	.	.	.	.	.	.	.	.	.	.	.	.	.
.	.	.	8ee-\J	.	8gg\J)	.	.	.	.	.	.	.	.	.	.	.	.	.	.	.	.	.
.	.	.	4qqee-/	.	4qqgg/	.	.	.	.	.	.	.	.	.	.	.	.	.	.	.	.	.
*	*	*	*2\right	*	*	*	*	*	*	*	*	*	*	*	*	*	*	*	*	*	*	*
4B-\	x x 5	.	2dd\	.	2ff\	.	(4B-\	-na	.	2d\	-na	.	2g\	-na	.	2ff\	-na	.	2dd\	.	2ff\	.
4Bn\	x x 5	.	.	.	.	.	4Bn\)	.	.	.	.	.	.	.	.	.	.	.	.	.	.	.
=10	=10	=10	=10	=10	=10	=10	=10	=10	=10	=10	=10	=10	=10	=10	=10	=10	=10	=10	=10	=10	=10	=10
*	*	*	*	*	*	*	*	*	*	*	*ij	*	*	*ij	*	*	*	*	*	*	*	*
2c\	.	.	8cc`\L	.	8ee-`\L	.	2c\	do-	.	2c\	do-	.	2g\	do-	.	2ee-\	do-	.	2cc\	.	2ee-\	.
.	.	.	(8cc\	.	8ee-\	.	.	.	.	.	.	.	.	.	.	.	.	.	.	.	.	.
.	.	.	8ee-\	.	8gg\	.	.	.	.	.	.	.	.	.	.	.	.	.	.	.	.	.
.	x x 5	.	8cc\J)	.	8ee-\J	.	.	.	.	.	.	.	.	.	.	.	.	.	.	.	.	.
2G\	x x 6	.	2b-\	.	(4dd\	.	2G\	-na	.	2B-\	-na	.	2g\	-na	.	(4dd\	-na	.	2b-\	.	4dd\	.
.	x x 5	.	.	.	4dd-X\)	.	.	.	.	.	.	.	.	.	.	4dd-X\)	.	.	.	.	4dd-X\	.
=11	=11	=11	=11	=11	=11	=11	=11	=11	=11	=11	=11	=11	=11	=11	=11	=11	=11	=11	=11	=11	=11	=11
!LO:LB:g=original	!	!	!LO:LB:g=original	!	!	!	!	!	!	!	!	!	!	!	!	!	!	!	!	!	!	!
*	*	*	*tremolo	*	*	*	*	*ij	*	*	*	*	*	*	*	*	*	*	*	*	*	*
!	!	!	!LO:TX:b:t=P:problem=cztery kropki pod nutą	!LO:DY:b:rj	!	!	!	!	!	!	!	!	!	!	!	!	!	!	!	!	!	!
2A-\	.	.	(8e-/'L	p	(8cc\'L	.	2A-\	do-	.	2A-\	do-	.	2e-\	do-	.	2cc\	e-	.	2a-\	.	2cc\	.
.	.	.	8e-/'	.	8cc\'	.	.	.	.	.	.	.	.	.	.	.	.	.	.	.	.	.
.	.	.	8e-/'	.	8cc\'	.	.	.	.	.	.	.	.	.	.	.	.	.	.	.	.	.
.	.	.	8e-/'J)	.	8cc\'J)	.	.	.	.	.	.	.	.	.	.	.	.	.	.	.	.	.
2F\	6 4 3	.	8r	.	8r	.	2F\	-na	.	2B-\	-na	.	2a-\	-na	.	2ddn\	-is	.	2a-\	.	2ddn\	.
*	*	*	*Xtremolo	*	*	*	*	*Xij	*	*	*Xij	*	*	*Xij	*	*	*	*	*	*	*	*
.	.	.	(8a-/'L	.	(8ddn\'L	.	.	.	.	.	.	.	.	.	.	.	.	.	.	.	.	.
.	.	.	8a-/'	.	8dd\'	.	.	.	.	.	.	.	.	.	.	.	.	.	.	.	.	.
.	.	.	8a-/'J)	.	8dd\'J)	.	.	.	.	.	.	.	.	.	.	.	.	.	.	.	.	.
=12	=12	=12	=12	=12	=12	=12	=12	=12	=12	=12	=12	=12	=12	=12	=12	=12	=12	=12	=12	=12	=12	=12
!	!	!	!	!	!LO:LB:g=original	!	!	!	!	!	!	!	!	!	!	!	!	!	!	!	!	!
2E-\	.	.	(8g/L	.	(8ee-\L	.	4.E-\	e-	.	4.B-\	e-	.	4.g\	e-	.	4.ee-\	e-	.	4g/	.	4dd\	.
.	.	.	8f/	.	8dd\)	.	.	.	.	.	.	.	.	.	.	.	.	.	.	.	.	.
.	.	.	8g/	.	8ee-\	.	.	.	.	.	.	.	.	.	.	.	.	.	8r	.	8r	.
.	.	.	8g/J)	.	8b-\J	.	8E-\	-is	.	8B-\	-is	.	8g\	-is	.	8b-\	-is	.	8gg\	.	8bb-\	.
.	.	.	.	.	.	.	.	.	.	.	.	.	8qqg/	.	.	8qqb-/	.	.	.	.	.	.
4AA-/	x 8 6	.	(8g/L	.	(8b-\L	.	4A-\	do-	.	4c\	do-	.	4f\	do-	.	4a-\	do-	.	8gg\L	.	(8bb-\L	.
.	.	.	8f/)	.	8a-/)	.	.	.	.	.	.	.	.	.	.	.	.	.	8ff\	.	8aa-\)	.
4AAn/	x 7 5	.	(8f/	.	(8a-/	.	4An\	-mi-	.	4c\	-mi-	.	4e-\	-mi-	.	4g\	-mi-	.	8ff\	.	(8aa-\	.
.	.	.	8e-/J)	.	8g/J)	.	.	.	.	.	.	.	.	.	.	.	.	.	8ee-\J	.	8gg\J)	.
=13	=13	=13	=13	=13	=13	=13	=13	=13	=13	=13	=13	=13	=13	=13	=13	=13	=13	=13	=13	=13	=13	=13
!	!	!	!	!	!	!	!	!	!	!LO:LB:g=original	!	!	!	!	!	!	!	!	!	!	!	!
.	.	.	4qqe-/	.	4qqg/	.	.	.	.	.	.	.	.	.	.	16qqg/	.	.	8qqee-/	.	8qqgg/	.
!	!	!	!	!	!	!	!	!	!	!	!	!	!	!	!	!	!	!	!	!LO:DY:t=for	!	!LO:DY:t=for
2BB-/	.	.	2d/	.	2f/	.	2B-\	-ne	.	2B-\	-ne	.	2d\	-ne	.	2f/	-ne	.	4dd\	f	4ff\	f
.	.	.	.	.	.	.	.	.	.	.	.	.	.	.	.	.	.	.	8.dd\L	.	8.ff\L	.
*	*	*	*	*	*	*	*	*	*	*	*	*	*	*	*	*	*	*	*16\right	*	*16\right	*
.	.	.	.	.	.	.	.	.	.	.	.	.	.	.	.	.	.	.	16dd\Jk	.	16ff\Jk	.
!	!	!	!	!	!	!	!	!	!LO:DY:b:t=fo	!	!	!LO:DY:b:t=for	!	!	!LO:DY:b:t=for	!	!	!LO:DY:b	!	!	!	!
2r	.	.	4r	.	4r	.	4r	.	f	4r	.	f	4r	.	f	4r	.	f	4dd\	.	4ff\	.
!	!	!	!	!	!	!LO:DY:b:t=for	!	!	!	!	!	!	!	!	!	!	!	!	!	!	!	!
.	.	.	(8.f/L	.	(8.f/L	f	(8.F\L	et	.	(8.F/L	et	.	(8.f\L	et	.	(8.f/L	et	.	4r	.	4r	.
.	.	.	32g/LL	.	32g/LL	.	32G\LL	.	.	32G/LL	.	.	32g\LL	.	.	32g\LL	.	.	.	.	.	.
.	.	.	32an/JJJ)	.	32an/JJJ)	.	32An\JJJ)	.	.	32An\JJJ)	.	.	32an\JJJ)	.	.	32an\JJJ)	.	.	.	.	.	.
=14	=14	=14	=14	=14	=14	=14	=14	=14	=14	=14	=14	=14	=14	=14	=14	=14	=14	=14	=14	=14	=14	=14
!	!	!	!	!	!	!	!	!	!	!	!	!	!	!	!	!	!	!	!	!	!LO:LB:g=original	!
!	!	!LO:DY:b:rj:t=for	!	!	!	!	!	!	!	!	!	!	!	!	!	!	!	!	!	!	!	!
2BB-/	.	f	2b-\	.	2dd\	.	2B-\	lux	.	2B-\	lux	.	2b-\	lux	.	2b-\	lux	.	8r	.	8r	.
!	!	!	!	!	!	!	!	!	!	!	!	!	!	!	!	!	!	!	!	!	!	!LO:DY:t=fo
.	.	.	.	.	.	.	.	.	.	.	.	.	.	.	.	.	.	.	8dd\L	.	8ff\L	f
.	.	.	.	.	.	.	.	.	.	.	.	.	.	.	.	.	.	.	8dd\	.	8ff\	.
.	.	.	.	.	.	.	.	.	.	.	.	.	.	.	.	.	.	.	8dd\J	.	8ff\J	.
2r	.	.	4r	.	4r	.	4r	.	.	4r	.	.	4r	.	.	4r	.	.	4dd\	.	4ff\	.
*	*	*	*16\right	*	*16\right	*	*	*ij	*	*	*ij	*	*	*	*	*	*ij	*	*	*	*	*
.	.	.	(16b-\LL	.	(16b-\LL	.	8.B-\L	et	.	(8.B-\L	et	.	8.b-\L	et	.	(8.b-\L	et	.	4r	.	4r	.
.	.	.	16an\	.	16an\	.	.	.	.	.	.	.	.	.	.	.	.	.	.	.	.	.
.	.	.	16b-\	.	16b-\	.	.	.	.	.	.	.	.	.	.	.	.	.	.	.	.	.
.	.	.	16cc\JJ)	.	16cc\JJ)	.	16c\Jk	.	.	16c\Jk)	.	.	16cc\Jk	.	.	16cc\Jk)	.	.	.	.	.	.
=15	=15	=15	=15	=15	=15	=15	=15	=15	=15	=15	=15	=15	=15	=15	=15	=15	=15	=15	=15	=15	=15	=15
!	!	!	!	!	!	!	!	!	!	!	!	!	!LO:LB:g=original	!	!	!	!	!	!LO:LB:g=original	!	!	!
2BB-/	.	.	2dd\	.	2dd\	.	2d\	lux	.	2d\	lux	.	2dd\	lux	.	2dd\	lux	.	8r	.	8r	.
*	*	*	*	*	*	*	*	*Xij	*	*	*Xij	*	*	*	*	*	*	*	*	*	*	*
!	!	!	!	!	!	!	!	!	!	!	!	!	!	!	!	!	!	!	!	!	!	!LO:DY:t=fo
.	.	.	.	.	.	.	.	.	.	.	.	.	.	.	.	.	.	.	8dd\L	.	8bb-\L	f
.	.	.	.	.	.	.	.	.	.	.	.	.	.	.	.	.	.	.	8dd\	.	8bb-\	.
.	.	.	.	.	.	.	.	.	.	.	.	.	.	.	.	.	.	.	8dd\J	.	8bb-\J	.
2r	.	.	4r	.	4r	.	4r	.	.	4r	.	.	4r	.	.	4r	.	.	4dd\	.	4bb-\	.
.	.	.	(16b-\LL	.	(16dd\LL	.	4B-\	et	.	4B-\	et	.	8.b-\L	et	.	(8.dd\L	et	.	4r	.	4r	.
*	*	*	*	*	*	*	*	*	*	*	*	*	*	*	*	*	*Xij	*	*	*	*	*
.	.	.	16a-\	.	16cc\	.	.	.	.	.	.	.	.	.	.	.	.	.	.	.	.	.
.	.	.	16b-\	.	16dd\	.	.	.	.	.	.	.	.	.	.	.	.	.	.	.	.	.
.	.	.	16cc\JJ)	.	16ee-\JJ)	.	.	.	.	.	.	.	16cc\Jk	.	.	16ee-\Jk)	.	.	.	.	.	.
=16	=16	=16	=16	=16	=16	=16	=16	=16	=16	=16	=16	=16	=16	=16	=16	=16	=16	=16	=16	=16	=16	=16
!	!	!	!	!	!	!	!	!	!	!	!	!	!	!	!	!LO:B:g=original	!	!	!	!	!	!
*	*	*	*4\right	*	*	*	*	*	*	*	*	*	*	*	*	*	*	*	*	*	*	*
2B-\	.	.	4dd\	.	4ff\	.	4B-\	lux	.	4B-\	lux	.	4dd\	lux	.	4ff\	lux	.	2r	.	2r	.
.	.	.	.	.	8qqee-/	.	.	.	.	.	.	.	.	.	.	.	.	.	.	.	.	.
.	.	.	4b-\	.	4dd\	.	4B-\	per-	.	4f\	per-	.	4b-\	per-	.	4dd\	per-	.	.	.	.	.
2BB-/	x x 7	.	8d/L	.	4.b-\	.	4.BB-/	-pe-	.	4.d\	-pe-	.	4.f\	-pe-	.	4.b-\	-pe-	.	4.b-\	.	2ff\	.
.	x x 5	.	8f/	.	.	.	.	.	.	.	.	.	.	.	.	.	.	.	.	.	.	.
.	.	.	8d/	.	.	.	.	.	.	.	.	.	.	.	.	.	.	.	.	.	.	.
.	.	.	8f/J	.	8a-\	.	8BB-/	-tu-	.	8d\	-tu-	.	8f\	-tu-	.	8a-\	-tu-	.	8a-\	.	.	.
=17	=17	=17	=17	=17	=17	=17	=17	=17	=17	=17	=17	=17	=17	=17	=17	=17	=17	=17	=17	=17	=17	=17
!	!	!	!	!	!	!	!LO:LB:g=original	!	!	!	!	!	!	!	!	!	!	!	!	!	!	!
.	.	.	4qqf/	.	4qqa-/	.	.	.	.	.	.	.	8qqf/	.	.	8qqa-/	.	.	.	.	.	.
!	!	!	!	!	!	!	!	!	!	!	!	!	!	!	!	!	!	!	!LO:TX:a:t=P:problem=mixed beam	!	!	!
2E-\	.	.	2e-/	.	2g/	.	2E-\	-a	.	2e-\	-a	.	2e-\	-a	.	2g\	-a	.	8g/L	.	8ee-\L	.
.	.	.	.	.	.	.	.	.	.	.	.	.	.	.	.	.	.	.	8ee-\	.	8gg\	.
.	.	.	.	.	.	.	.	.	.	.	.	.	.	.	.	.	.	.	8ee-\	.	8gg\	.
.	.	.	.	.	.	.	.	.	.	.	.	.	.	.	.	.	.	.	8ee-\J	.	8gg\J	.
2r	.	.	4r	.	4r	.	4r	.	.	4r	.	.	4r	.	.	4r	.	.	4ee-\	.	4gg\	.
.	.	.	16e-/LL	.	16g/LL	.	8.E-\L	et	.	(8.E-/L	et	.	8.e-\L	et	.	(8.e-/L	et	.	4r	.	4r	.
.	.	.	16d/	.	(16f/	.	.	.	.	.	.	.	.	.	.	.	.	.	.	.	.	.
.	.	.	16e-/	.	16g/)	.	.	.	.	.	.	.	.	.	.	.	.	.	.	.	.	.
.	.	.	16f/JJ	.	16a-/JJ	.	16F\Jk	.	.	16F/Jk)	.	.	16f\Jk	.	.	16f/Jk)	.	.	.	.	.	.
=18	=18	=18	=18	=18	=18	=18	=18	=18	=18	=18	=18	=18	=18	=18	=18	=18	=18	=18	=18	=18	=18	=18
2E-\	.	.	2g/	.	2b-\	.	2G\	lux	.	2G/	lux	.	2g\	lux	.	2g\	lux	.	8r	.	8r	.
.	.	.	.	.	.	.	.	.	.	.	.	.	.	.	.	.	.	.	8ee-\L	.	8gg\L	.
.	.	.	.	.	.	.	.	.	.	.	.	.	.	.	.	.	.	.	8ee-\	.	8gg\	.
.	.	.	.	.	.	.	.	.	.	.	.	.	.	.	.	.	.	.	8ee-\J	.	8gg\J	.
2r	.	.	4r	.	4r	.	4r	.	.	4r	.	.	4r	.	.	4r	.	.	4ee-\	.	4gg\	.
*	*	*	*	*	*	*	*	*ij	*	*	*ij	*	*	*ij	*	*	*ij	*	*	*	*	*
.	.	.	(16g/LL	.	(16b-\LL	.	8.G\L	et	.	8.G/L	et	.	8.g\L	et	.	8.g\L	et	.	4r	.	4r	.
.	.	.	16f/	.	16a-\	.	.	.	.	.	.	.	.	.	.	.	.	.	.	.	.	.
.	.	.	16g/	.	16b-\	.	.	.	.	.	.	.	.	.	.	.	.	.	.	.	.	.
.	.	.	16a-/JJ)	.	16cc\JJ)	.	16A-\Jk	.	.	16A-\Jk	.	.	16a-\Jk	.	.	16a-\Jk	.	.	.	.	.	.
=19	=19	=19	=19	=19	=19	=19	=19	=19	=19	=19	=19	=19	=19	=19	=19	=19	=19	=19	=19	=19	=19	=19
!	!	!	!	!	!	!	!	!	!	!LO:LB:g=original	!	!	!	!	!	!	!	!	!	!	!	!
2E-\	.	.	2b-\	.	2dd-X\	.	2B-\	lux	.	2B-\	lux	.	2b-\	lux	.	2b-\	lux	.	8r	.	8r	.
*	*	*	*	*	*	*	*	*Xij	*	*	*Xij	*	*	*	*	*	*	*	*	*	*	*
.	.	.	.	.	.	.	.	.	.	.	.	.	.	.	.	.	.	.	8gg\L	.	8bb-\L	.
.	.	.	.	.	.	.	.	.	.	.	.	.	.	.	.	.	.	.	8gg\	.	8bb-\	.
.	.	.	.	.	.	.	.	.	.	.	.	.	.	.	.	.	.	.	8gg\J	.	8bb-\J	.
2r	.	.	4r	.	4r	.	4r	.	.	4r	.	.	4r	.	.	4r	.	.	4gg\	.	4bb-\	.
.	.	.	(16g/LL	.	16b-\LL	.	4E-\	et	.	4e-\	et	.	8.g\L	et	.	8.b-\L	et	.	4r	.	4r	.
*	*	*	*	*	*	*	*	*	*	*	*	*	*	*	*	*	*Xij	*	*	*	*	*
.	.	.	16a-/	.	16cc\	.	.	.	.	.	.	.	.	.	.	.	.	.	.	.	.	.
.	.	.	16g/	.	16b-\	.	.	.	.	.	.	.	.	.	.	.	.	.	.	.	.	.
.	.	.	16a-/JJ)	.	16cc\JJ	.	.	.	.	.	.	.	16a-\Jk	.	.	16cc\Jk	.	.	.	.	.	.
=20	=20	=20	=20	=20	=20	=20	=20	=20	=20	=20	=20	=20	=20	=20	=20	=20	=20	=20	=20	=20	=20	=20
2E-\	x x 6	.	(8b-\L	.	4dd-X\	.	4E-\	lux	.	4e-\	lux	.	4b-\	lux	.	4dd-X\	lux	.	4dd-X\	.	4bb-\	.
*	*	*	*	*	*	*	*	*	*	*	*	*	*	*Xij	*	*	*	*	*	*	*	*
.	x x 2	.	8g/)	.	.	.	.	.	.	.	.	.	.	.	.	.	.	.	.	.	.	.
.	.	.	(8b-\	.	4.dd-\	.	4E-\	per-	.	4e-\	per-	.	4b-\	per-	.	4dd-\	per-	.	2dd-\	.	2bb-\	.
.	.	.	8g/J)	.	.	.	.	.	.	.	.	.	.	.	.	.	.	.	.	.	.	.
4E-\	.	.	(8b-\L	.	.	.	4.E-\	-pe-	.	4.e-\	-pe-	.	4.b-\	-pe-	.	4.dd-\	-pe-	.	.	.	.	.
.	.	.	8g/)	.	(16cc\LL	.	.	.	.	.	.	.	.	.	.	.	.	.	.	.	.	.
.	.	.	.	.	16dd-\JJ)	.	.	.	.	.	.	.	.	.	.	.	.	.	.	.	.	.
4E-\	.	.	(8b-\	.	8ee-\L	.	.	.	.	.	.	.	.	.	.	.	.	.	4dd-\	.	4bb-\	.
.	.	.	8g/J)	.	8dd-\J	.	8E-\	-tu-	.	8e-\	-tu-	.	8b-\	-tu-	.	8dd-\	-tu-	.	.	.	.	.
=21	=21	=21	=21	=21	=21	=21	=21	=21	=21	=21	=21	=21	=21	=21	=21	=21	=21	=21	=21	=21	=21	=21
!	!	!	!LO:LB:g=original	!	!LO:LB:g=original	!	!	!	!	!	!	!	!	!	!	!	!	!	!	!	!	!
2A-\	.	.	8a-\`L	.	8cc\`L	.	2AA-/	-a	.	2e-\	-a	.	2a-\	-a	.	2cc\	-a	.	2cc\	.	2aa-\	.
.	.	.	(8cc\	.	(8aa-\	.	.	.	.	.	.	.	.	.	.	.	.	.	.	.	.	.
.	.	.	8b-\	.	8ff\	.	.	.	.	.	.	.	.	.	.	.	.	.	.	.	.	.
.	.	.	8cc\J)	.	8aa-\J)	.	.	.	.	.	.	.	.	.	.	.	.	.	.	.	.	.
2r	.	.	8ee-\`L	.	(8ccc\L	.	2r	.	.	2r	.	.	2r	.	.	2r	.	.	2r	.	2r	.
.	.	.	(8cc\	.	8aa-\	.	.	.	.	.	.	.	.	.	.	.	.	.	.	.	.	.
.	.	.	8b-\	.	8gg\	.	.	.	.	.	.	.	.	.	.	.	.	.	.	.	.	.
.	.	.	8cc\J)	.	8aa-\J)	.	.	.	.	.	.	.	.	.	.	.	.	.	.	.	.	.
=22	=22	=22	=22	=22	=22	=22	=22	=22	=22	=22	=22	=22	=22	=22	=22	=22	=22	=22	=22	=22	=22	=22
!	!	!	!	!	!	!	!	!	!	!	!	!	!LO:LB:g=original	!	!	!	!	!	!LO:LB:g=original	!	!LO:LB:g=original	!
2En\	x 6 5	.	(8b-\L	.	(8gg\L	.	2E-\	lu-	.	2c\	lu-	.	2g\	lu-	.	2b-\	lu-	.	1gg\	.	1bb-\	.
.	.	.	8g/	.	8b-\J)	.	.	.	.	.	.	.	.	.	.	.	.	.	.	.	.	.
.	.	.	8g/	.	(4.b-\	.	.	.	.	.	.	.	.	.	.	.	.	.	.	.	.	.
.	.	.	8en/J)	.	.	.	.	.	.	.	.	.	.	.	.	.	.	.	.	.	.	.
4E\	.	.	(8g/L	.	.	.	4E-\	-ce-	.	4c\	-ce-	.	4g\	-ce-	.	4b-\	-ce-	.	.	.	.	.
.	.	.	8e/	.	16cc\LL	.	.	.	.	.	.	.	.	.	.	.	.	.	.	.	.	.
.	.	.	.	.	16dd-X\JJ)	.	.	.	.	.	.	.	.	.	.	.	.	.	.	.	.	.
4E\	.	.	8g/	.	8cc\^L	.	4E-\	-at	.	4c\	-at	.	4g\	-at	.	4b-\	-at	.	.	.	.	.
.	.	.	8e/J)	.	8b-\J	.	.	.	.	.	.	.	.	.	.	.	.	.	.	.	.	.
=23	=23	=23	=23	=23	=23	=23	=23	=23	=23	=23	=23	=23	=23	=23	=23	=23	=23	=23	=23	=23	=23	=23
!LO:LB:g=original	!	!	!	!	!	!	!	!	!	!	!	!	!	!	!	!LO:B:g=original	!	!	!	!	!	!
.	.	.	.	.	.	.	.	.	.	.	.	.	.	.	.	.	.	.	8qqgg/	.	8qqbb-/	.
2F\	.	.	8g/L	.	(8b-\L	.	2F\	e-	.	2c\	e-	.	(8g\L	e-	.	(8b-\L	e-	.	2ff\	.	2aa-\	.
.	.	.	8f/	.	8a-/	.	.	.	.	.	.	.	8f\	.	.	8a-\	.	.	.	.	.	.
.	.	.	8e-/	.	8g/	.	.	.	.	.	.	.	8en\	.	.	8g\	.	.	.	.	.	.
.	.	.	8f/J	.	8a-/J)	.	.	.	.	.	.	.	8f\J)	.	.	8a-\J)	.	.	.	.	.	.
*8\right	*	*	*	*	*	*	*	*	*	*	*	*	*	*	*	*	*	*	*	*	*	*
8F\L	.	.	2f/	.	2a-/	.	2F\	-is	.	2c\	-is	.	2f\	-is	.	2a-\	-is	.	2r	.	2r	.
8E-X\	.	.	.	.	.	.	.	.	.	.	.	.	.	.	.	.	.	.	.	.	.	.
8D\	.	.	.	.	.	.	.	.	.	.	.	.	.	.	.	.	.	.	.	.	.	.
8C\J	.	.	.	.	.	.	.	.	.	.	.	.	.	.	.	.	.	.	.	.	.	.
=24	=24	=24	=24	=24	=24	=24	=24	=24	=24	=24	=24	=24	=24	=24	=24	=24	=24	=24	=24	=24	=24	=24
!	!	!	!	!	!	!	!LO:LB:g=original	!	!	!	!	!	!	!	!	!	!	!	!	!	!	!
2BB-/	x x 7	.	8dd\L	.	8ff\L	.	2r	.	.	2r	.	.	2r	.	.	2r	.	.	8dd\L	.	8ff\L	.
.	.	.	8cc\	.	8ee-\	.	.	.	.	.	.	.	.	.	.	.	.	.	8cc\	.	8ee-\	.
.	.	.	8b-\	.	8dd\	.	.	.	.	.	.	.	.	.	.	.	.	.	8b-\	.	8dd\	.
.	.	.	8a-\J	.	8cc\J	.	.	.	.	.	.	.	.	.	.	.	.	.	8a-/J	.	8cc\J	.
2BB-/	.	.	8g/L	.	8b-\L	.	2B-\	et	.	2d\	et	.	2a-\	et	.	2ff\	et	.	8g/L	.	8b-\L	.
.	.	.	8f/	.	8a-/	.	.	.	.	.	.	.	.	.	.	.	.	.	8f/	.	8a-\	.
.	.	.	8e-/	.	8g/	.	.	.	.	.	.	.	.	.	.	.	.	.	8e-/	.	8g\	.
.	.	.	8d/J	.	8f/J	.	.	.	.	.	.	.	.	.	.	.	.	.	8d/J	.	8f\J	.
=25	=25	=25	=25	=25	=25	=25	=25	=25	=25	=25	=25	=25	=25	=25	=25	=25	=25	=25	=25	=25	=25	=25
2E-\	.	.	8e-/L	.	8g/L	.	2E-\	lux	.	2B-\	lux	.	2g\	lux	.	2ee-\	lux	.	8e-/L	.	8g\L	.
.	.	.	8f/	.	8a-/	.	.	.	.	.	.	.	.	.	.	.	.	.	8f/	.	8a-\	.
.	.	.	8g/	.	8b-\	.	.	.	.	.	.	.	.	.	.	.	.	.	8g/	.	8b-\	.
.	.	.	8a-/J	.	8cc\J	.	.	.	.	.	.	.	.	.	.	.	.	.	8a-/J	.	8cc\J	.
2r	.	.	8b-\L	.	8dd\L	.	4r	.	.	4r	.	.	4r	.	.	4r	.	.	8b-\L	.	8dd\L	.
.	.	.	8cc\	.	8ee-\	.	.	.	.	.	.	.	.	.	.	.	.	.	8cc\	.	8ee-\	.
*	*	*	*	*	*	*	*	*ij	*	*	*ij	*	*	*ij	*	*	*ij	*	*	*	*	*
.	.	.	8dd\	.	8ff\	.	4E-\	et	.	4e-\	et	.	4b-\	et	.	4gg\	et	.	8dd\	.	8ff\	.
.	.	.	8ee-\J	.	8gg\J	.	.	.	.	.	.	.	.	.	.	.	.	.	8ee-\J	.	8gg\J	.
=26	=26	=26	=26	=26	=26	=26	=26	=26	=26	=26	=26	=26	=26	=26	=26	=26	=26	=26	=26	=26	=26	=26
2BB-/	.	.	8ff\L	.	8aa-\L	.	2BB-/	lux	.	2d\	lux	.	2a-\	lux	.	2ff\	lux	.	8ff\L	.	8aa-\L	.
.	.	.	8ee-\	.	8gg\	.	.	.	.	.	.	.	.	.	.	.	.	.	8ee-\	.	8gg\	.
.	.	.	8dd\	.	8ff\	.	.	.	.	.	.	.	.	.	.	.	.	.	8dd\	.	8ff\	.
.	.	.	8cc\J	.	8ee-\J	.	.	.	.	.	.	.	.	.	.	.	.	.	8cc\J	.	8ee-\J	.
2BB-/	.	.	8b-\L	.	8dd\L	.	4r	.	.	4r	.	.	4r	.	.	4r	.	.	8b-\L	.	8dd\L	.
.	.	.	8a-\	.	8cc\	.	.	.	.	.	.	.	.	.	.	.	.	.	8a-\	.	8cc\	.
.	.	.	8g\	.	8b-\	.	4BB-/	et	.	4d\	et	.	4a-\	et	.	4ff\	et	.	8g\	.	8b-\	.
.	.	.	8f\J	.	8a-\J	.	.	.	.	.	.	.	.	.	.	.	.	.	8f\J	.	8a-\J	.
=27	=27	=27	=27	=27	=27	=27	=27	=27	=27	=27	=27	=27	=27	=27	=27	=27	=27	=27	=27	=27	=27	=27
2E-\	.	.	8e-/L	.	8g\L	.	2E-\	lux	.	2B-\	lux	.	2g\	lux	.	2ee-\	lux	.	8e-/L	.	8g\L	.
*	*	*	*	*	*	*	*	*Xij	*	*	*Xij	*	*	*Xij	*	*	*Xij	*	*	*	*	*
.	.	.	8g/	.	8b-\	.	.	.	.	.	.	.	.	.	.	.	.	.	8g/	.	8b-\	.
.	.	.	8a-/	.	8cc\	.	.	.	.	.	.	.	.	.	.	.	.	.	8a-/	.	8cc\	.
.	.	.	8b-/J	.	8dd\J	.	.	.	.	.	.	.	.	.	.	.	.	.	8b-\J	.	8dd\J	.
2r	.	.	8cc\L	.	8ee-\L	.	2rC	.	.	2rG	.	.	2r	.	.	2r	.	.	8cc\L	.	8ee-\L	.
!	!	!	!	!	!	!	!	!	!	!	!	!	!	!	!	!	!	!	!	!	!LO:TX:a:t=g	!
.	.	.	8dd\	.	8ff\	.	.	.	.	.	.	.	.	.	.	.	.	.	8dd\	.	8ff\	.
.	.	.	8ee-\	.	8gg\	.	.	.	.	.	.	.	.	.	.	.	.	.	8ee-\	.	8gg\	.
.	.	.	8ff\J	.	8aa-\J	.	.	.	.	.	.	.	.	.	.	.	.	.	8ff\J	.	8aa-\J	.
=28	=28	=28	=28	=28	=28	=28	=28	=28	=28	=28	=28	=28	=28	=28	=28	=28	=28	=28	=28	=28	=28	=28
!	!	!	!	!	!	!	!	!	!	!LO:LB:g=original	!	!	!	!	!	!	!	!	!LO:TX:a:t=P:problem=mixed beam	!	!	!
!	!	!	!LO:TX:b:t=P:problem=mixed beam	!	!	!	!	!	!	!	!	!	!	!	!	!	!	!	!	!	!	!
2G\	x x 6	.	8gg\L	.	(8bb-\'L	.	2G\	et	.	2e-\	et	.	2b-\	et	.	2ee-\	et	.	(8gg'>\L	.	2bb-\	.
.	.	.	8e-/	.	8bb-\'	.	.	.	.	.	.	.	.	.	.	.	.	.	8B-/	.	.	.
.	.	.	8e-/	.	8bb-\'	.	.	.	.	.	.	.	.	.	.	.	.	.	8E-/	.	.	.
.	.	.	8e-/J	.	8bb-\'J)	.	.	.	.	.	.	.	.	.	.	.	.	.	8B-/J)	.	.	.
!	!	!	!	!	!	!	!	!	!	!	!	!	!	!	!	!	!	!	!LO:LB:g=original	!	!	!
2G\	.	.	8r	.	8r	.	4G\	lux	.	4e-\	lux	.	4b-\	lux	.	4ee-\	lux	.	8B-/L	.	2b-\	.
.	.	.	8e-/L	.	8b-\L	.	.	.	.	.	.	.	.	.	.	.	.	.	8G/	.	.	.
.	.	.	8e-/	.	8b-\	.	4G\	per-	.	4e-\	per-	.	4b-\	per-	.	4ee-\	per-	.	8B-/	.	.	.
.	.	.	8e-/J	.	8b-\J	.	.	.	.	.	.	.	.	.	.	.	.	.	8G/J	.	.	.
=29	=29	=29	=29	=29	=29	=29	=29	=29	=29	=29	=29	=29	=29	=29	=29	=29	=29	=29	=29	=29	=29	=29
!	!	!	!	!	!	!	!	!	!	!	!	!	!	!	!	!	!	!	!	!	!LO:LB:g=original	!
!LO:TX:a:t=P:problem=brak jednego taktu	!	!	!	!	!	!	!	!	!	!	!	!	!	!	!	!	!	!	!	!	!	!
1ryy	.	.	2e-/	.	(8bn\L	.	4.A-\	-pe-	.	4.e-\	-pe-	.	4.cc\	-pe-	.	4.ee-\	-pe-	.	4A-/	.	4cc\	.
.	.	.	.	.	8cc\	.	.	.	.	.	.	.	.	.	.	.	.	.	.	.	.	.
.	.	.	.	.	8b\	.	.	.	.	.	.	.	.	.	.	.	.	.	4r	.	4r	.
.	.	.	.	.	8cc\J)	.	8A-\	-tu-	.	8e-\	-tu-	.	8cc\	-tu-	.	8ee-\	-tu-	.	.	.	.	.
!	!	!	!	!	!LO:LB:g=original	!	!	!	!	!	!	!	!	!	!	!	!	!	!	!	!	!
.	.	.	8r	.	2cc\	.	2A-\	-a	.	2e-\	-a	.	2cc\	-a	.	2ee-\	-a	.	8r	.	(8bX\L	.
.	.	.	8e-/L	.	.	.	.	.	.	.	.	.	.	.	.	.	.	.	8e-/L	.	8cc\	.
.	.	.	8e-/	.	.	.	.	.	.	.	.	.	.	.	.	.	.	.	8e-/	.	8b\	.
.	.	.	8e-/J	.	.	.	.	.	.	.	.	.	.	.	.	.	.	.	8e-/J	.	8cc\J)	.
=30	=30	=30	=30	=30	=30	=30	=30	=30	=30	=30	=30	=30	=30	=30	=30	=30	=30	=30	=30	=30	=30	=30
!	!	!	!LO:LB:g=original	!	!	!	!	!	!	!	!	!	!LO:LB:g=original	!	!	!	!	!	!	!	!	!
2A-\	x x 5	.	2f/	.	(16cc\LL	.	2A-\	lu-	.	2c\	lu-	.	2a-\	lu-	.	2ff\	lu-	.	2cc\	.	2ff\	.
.	.	.	.	.	16een\	.	.	.	.	.	.	.	.	.	.	.	.	.	.	.	.	.
.	.	.	.	.	16ff\	.	.	.	.	.	.	.	.	.	.	.	.	.	.	.	.	.
.	.	.	.	.	16ee\JJ)	.	.	.	.	.	.	.	.	.	.	.	.	.	.	.	.	.
.	.	.	.	.	(16ff\LL	.	.	.	.	.	.	.	.	.	.	.	.	.	.	.	.	.
.	.	.	.	.	16ee\	.	.	.	.	.	.	.	.	.	.	.	.	.	.	.	.	.
.	.	.	.	.	16ff\	.	.	.	.	.	.	.	.	.	.	.	.	.	.	.	.	.
.	.	.	.	.	16gg\JJ)	.	.	.	.	.	.	.	.	.	.	.	.	.	.	.	.	.
4r	.	.	4r	.	(16aa-\LL	.	4A-\	-ce-	.	4c\	-ce-	.	4a-\	-ce-	.	4ff\	-ce-	.	4r	.	4r	.
.	.	.	.	.	16gg\	.	.	.	.	.	.	.	.	.	.	.	.	.	.	.	.	.
.	.	.	.	.	16aa-\	.	.	.	.	.	.	.	.	.	.	.	.	.	.	.	.	.
.	.	.	.	.	16gg\JJ)	.	.	.	.	.	.	.	.	.	.	.	.	.	.	.	.	.
.	.	.	.	.	.	.	.	.	.	.	.	.	.	.	.	.	.	.	16qqdd/	.	16qqbb-/	.
4A-\	x x 6	.	(8cc\L	.	(16bb-\LL	.	4A-\	-at	.	4c\	-at	.	(8cc\L	-at	.	(8aa-\L	-at	.	8cc\L	.	8aa-\L	.
.	.	.	.	.	16aa-\	.	.	.	.	.	.	.	.	.	.	.	.	.	.	.	.	.
.	.	.	16b-\L	.	16gg\	.	.	.	.	.	.	.	8a-\J)	.	.	8ff\J)	.	.	16b-\L	.	16gg\L	.
.	.	.	16a-\JJ)	.	16ff\JJ)	.	.	.	.	.	.	.	.	.	.	.	.	.	16a-\JJ	.	16ff\JJ	.
=31	=31	=31	=31	=31	=31	=31	=31	=31	=31	=31	=31	=31	=31	=31	=31	=31	=31	=31	=31	=31	=31	=31
!	!	!	!	!	!	!	!LO:LB:g=original	!	!	!	!	!	!	!	!	!LO:B:g=original	!	!	!	!	!	!
*	*	*	*tremolo	*	*tremolo	*	*	*	*	*	*	*	*	*	*	*	*	*	*	*	*	*
!	!	!	!	!	!LO:TX:a:t=P:problem=cztery kropki nad nutą	!	!	!	!	!	!	!	!	!	!	!	!	!	!	!	!	!
2B-\	x 6 4	.	8g/L	.	8ee-\'L	.	2B-\	e-	.	1B-\	e-	.	2g\	e-	.	2ee-\	e-	.	2g/	.	2ee-\	.
.	.	.	8g/	.	8ee-\'	.	.	.	.	.	.	.	.	.	.	.	.	.	.	.	.	.
.	.	.	8g/	.	8ee-\'	.	.	.	.	.	.	.	.	.	.	.	.	.	.	.	.	.
.	.	.	8g/J	.	8ee-\'J	.	.	.	.	.	.	.	.	.	.	.	.	.	.	.	.	.
!	!	!	!	!	!LO:TX:a:t=P:problem=cztery kropki nad nutą	!	!	!	!	!	!	!	!	!	!	!	!	!	!	!	!	!
2BB-/	x 5 3	.	8f/L	.	8dd\'L	.	2BB-/	.	.	.	.	.	2f\	.	.	2dd\	.	.	2f/	.	2dd\	.
.	.	.	8f/	.	8dd\'	.	.	.	.	.	.	.	.	.	.	.	.	.	.	.	.	.
.	.	.	8f/	.	8dd\'	.	.	.	.	.	.	.	.	.	.	.	.	.	.	.	.	.
.	.	.	8f/J	.	8dd\'J	.	.	.	.	.	.	.	.	.	.	.	.	.	.	.	.	.
*	*	*	*Xtremolo	*	*Xtremolo	*	*	*	*	*	*	*	*	*	*	*	*	*	*	*	*	*
=32	=32	=32	=32	=32	=32	=32	=32	=32	=32	=32	=32	=32	=32	=32	=32	=32	=32	=32	=32	=32	=32	=32
8E-\L	.	.	2g/	.	2ee-\	.	2E-\	-is	.	2B-\	-is	.	2g\	-is	.	2ee-\	-is	.	4g/	.	4ee-\	.
8E-\	.	.	.	.	.	.	.	.	.	.	.	.	.	.	.	.	.	.	.	.	.	.
8G\	.	.	.	.	.	.	.	.	.	.	.	.	.	.	.	.	.	.	4r	.	4r	.
8E-\J	.	.	.	.	.	.	.	.	.	.	.	.	.	.	.	.	.	.	.	.	.	.
4B-\	.	.	2r	.	2r	.	2rC	.	.	2rE	.	.	2r	.	.	2r	.	.	(4.dd\	.	(4.ff\	.
4BB-/	.	.	.	.	.	.	.	.	.	.	.	.	.	.	.	.	.	.	.	.	.	.
.	.	.	.	.	.	.	.	.	.	.	.	.	.	.	.	.	.	.	16ee-\LL	.	16gg\LL	.
.	.	.	.	.	.	.	.	.	.	.	.	.	.	.	.	.	.	.	16ff\JJ)	.	16aa-\JJ)	.
=33	=33	=33	=33	=33	=33	=33	=33	=33	=33	=33	=33	=33	=33	=33	=33	=33	=33	=33	=33	=33	=33	=33
.	.	.	.	.	.	.	.	.	.	.	.	.	.	.	.	.	.	.	8qqff/	.	8qqaa-/	.
2E-\	.	.	8r	.	8r	.	2rC	.	.	2rE	.	.	2r	.	.	2r	.	.	2ee-\	.	2gg\	.
.	.	.	8e-/L	.	8e-/L	.	.	.	.	.	.	.	.	.	.	.	.	.	.	.	.	.
.	.	.	8g/	.	8g/	.	.	.	.	.	.	.	.	.	.	.	.	.	.	.	.	.
.	.	.	8e-/J	.	8e-/J	.	.	.	.	.	.	.	.	.	.	.	.	.	.	.	.	.
4B-\	.	.	4.f/ 4.B-/	.	4.dd/ 4.f/	.	4.B-\	Re-	.	4.d\	Re-	.	4.b-\	Re-	.	4.ff\	Re-	.	2dd\	.	2ff\	.
4BB-/	.	.	.	.	.	.	.	.	.	.	.	.	.	.	.	.	.	.	.	.	.	.
.	.	.	8f/ 8B-/	.	8dd/ 8f/	.	8B-\	-qui-	.	8d\	-qui-	.	8b-\	-qui-	.	8ff\	-qui-	.	.	.	.	.
=34	=34	=34	=34	=34	=34	=34	=34	=34	=34	=34	=34	=34	=34	=34	=34	=34	=34	=34	=34	=34	=34	=34
!LO:LB:g=original	!	!	!	!	!	!	!	!	!	!	!	!	!	!	!	!	!	!	!	!	!	!
8E-\L	.	.	4g/ 4B-/	.	4ee-/ 4e-/	.	2E-\	-em	.	2B-\	-em	.	2g\	-em	.	2ee-\	-em	.	4ee-\	.	4gg\	.
8E-\	.	.	.	.	.	.	.	.	.	.	.	.	.	.	.	.	.	.	.	.	.	.
8G\	.	.	4r	.	4r	.	.	.	.	.	.	.	.	.	.	.	.	.	4r	.	4r	.
8E-\J	.	.	.	.	.	.	.	.	.	.	.	.	.	.	.	.	.	.	.	.	.	.
4B-\	.	.	8r	.	8r	.	2rC	.	.	2rE	.	.	2r	.	.	2r	.	.	(4.dd\	.	(4.ff\	.
.	.	.	8B-/L	.	8B-/L	.	.	.	.	.	.	.	.	.	.	.	.	.	.	.	.	.
4BB-/	.	.	8d/	.	8d/	.	.	.	.	.	.	.	.	.	.	.	.	.	.	.	.	.
.	.	.	8B-/J	.	8B-/J	.	.	.	.	.	.	.	.	.	.	.	.	.	16ee-\LL	.	16gg\LL	.
.	.	.	.	.	.	.	.	.	.	.	.	.	.	.	.	.	.	.	16ff\JJ)	.	16aa-\JJ)	.
=35	=35	=35	=35	=35	=35	=35	=35	=35	=35	=35	=35	=35	=35	=35	=35	=35	=35	=35	=35	=35	=35	=35
.	.	.	.	.	.	.	.	.	.	.	.	.	.	.	.	.	.	.	8qqff/	.	8qqaa-/	.
2E-\	.	.	2e-/	.	2e-/	.	2rC	.	.	2rE	.	.	2r	.	.	2r	.	.	2ee-\	.	2gg\	.
*	*	*	*	*	*4\left	*	*	*ij	*	*	*ij	*	*	*ij	*	*	*ij	*	*	*	*	*
2BB-/	.	.	4.b-/ 4.d/	.	4.ee-\ 4.b-\	.	4.BB-/	re-	.	4.B-\	re-	.	4.f\	re-	.	4.dd\	re-	.	4.b-\	.	2dd\	.
.	.	.	8b-/ 8d/	.	8ff\ 8b-\	.	8BB-/	-qui-	.	8B-\	-qui-	.	8f\	-qui-	.	8dd\	-qui-	.	8a-\	.	.	.
=36	=36	=36	=36	=36	=36	=36	=36	=36	=36	=36	=36	=36	=36	=36	=36	=36	=36	=36	=36	=36	=36	=36
4E-\	.	.	4b-/ 4e-/	.	4gg/ 4b-/ 4e-/	.	2E-\	-em	.	2B-\	-em	.	2g\	-em	.	2ee-\	-em	.	4g/	.	4ee-\	.
*	*	*	*	*	*	*	*	*Xij	*	*	*Xij	*	*	*Xij	*	*	*Xij	*	*	*	*	*
4E-\	.	.	4b-/ 4e-/	.	4gg/ 4b-/ 4e-/	.	.	.	.	.	.	.	.	.	.	.	.	.	4g/	.	4ee-\	.
2E-\	.	.	2b-/ 2e-/	.	2gg/ 2b-/ 2e-/	.	2rC	.	.	2rG	.	.	2r	.	.	2r	.	.	2g/	.	2ee-\	.
=37	=37	=37	=37	=37	=37	=37	=37	=37	=37	=37	=37	=37	=37	=37	=37	=37	=37	=37	=37	=37	=37	=37
!	!	!	!	!	!	!	!	!	!	!	!	!	!	!	!	!	!	!	!LO:LB:g=original	!	!LO:LB:g=original	!
!	!	!	!	!	!	!	!	!	!	!	!	!	!	!	!LO:DY:b:rj	!	!	!LO:DY:b:rj	!	!	!	!
2r	.	.	2r	.	2r	.	4E-\	Ky-	.	4e-\	Ky-	.	4g\	Ky-	p	4b-\	Ky-	p	2r	.	2r	.
.	.	.	.	.	.	.	4E-\	-ri-	.	4e-\	-ri-	.	4g\	-ri-	.	4b-\	-ri-	.	.	.	.	.
4r	.	.	4r	.	4r	.	4E-\	-e	.	4e-\	-e	.	4g\	-e	.	4b-\	-e	.	4r	.	4r	.
!	!	!LO:DY:b	!	!	!	!	!	!	!	!	!	!	!	!	!	!	!	!	!	!	!	!
4E-\	.	p	4g/	.	4b-\	.	4E-\	e-	.	4e-\	e-	.	4g\	e-	.	4b-\	e-	.	4b-\	.	4gg\	.
=38	=38	=38	=38	=38	=38	=38	=38	=38	=38	=38	=38	=38	=38	=38	=38	=38	=38	=38	=38	=38	=38	=38
(4AA-/	x x 5	.	1a-/	.	1cc\	.	4AA-/	-ley-	<	(2.e-\	-lei-	.	1a-\	-lei-	.	1cc\	-lei-	.	1cc\	.	1aa-\	.
4BB-/	.	.	.	.	.	.	4BB-/	.	.	.	.	.	.	.	.	.	.	.	.	.	.	.
4C/	.	.	.	.	.	.	4C/	.	.	.	.	.	.	.	.	.	.	.	.	.	.	.
4D/)	.	.	.	.	.	.	4D/	.	[	4f\)	.	.	.	.	.	.	.	.	.	.	.	.
=39	=39	=39	=39	=39	=39	=39	=39	=39	=39	=39	=39	=39	=39	=39	=39	=39	=39	=39	=39	=39	=39	=39
1E-\	.	.	1g/	.	1b-\	.	1E-\	-son	.	1e-\	-son	.	1g\	-son	.	1b-\	-son	.	1b-\	.	1gg\	.
==	==	==	==	==	==	==	==	==	==	==	==	==	==	==	==	==	==	==	==	==	==	==
*-	*-	*-	*-	*-	*-	*-	*-	*-	*-	*-	*-	*-	*-	*-	*-	*-	*-	*-	*-	*-	*-	*-
!!!system-decoration: [g1][g2][g3]s9
!!!RDF**kern: > = above
!!!RDF**kern: < = below
!!!ENC: Marta Lawrence
!!!END: 2020-05-05
